icons/font-size.svg

<svg width="24" height="24" viewBox="0 0 24 24" fill="none" xmlns="http://www.w3.org/2000/svg">
<path d="M2 19L3.96429 14M3.96429 14L7.5 5H8.5L12.0357 14M3.96429 14H12.0357M12.0357 14L14 19" stroke="#1E293B" stroke-width="2" stroke-linecap="round" stroke-linejoin="round"/>
<path d="M22 16C22 17.6569 20.6569 19 19 19C17.3431 19 16 17.6569 16 16C16 14.3431 17.3431 13 19 13C20.6569 13 22 14.3431 22 16ZM22 16V13M22 16V19" stroke="#1E293B" stroke-width="2" stroke-linecap="round" stroke-linejoin="round"/>
</svg>

<svg
  width="24"
  height="24"
  viewBox="0 0 24 24"
  xmlns="http://www.w3.org/2000/svg"
  fill="none"
  stroke="currentColor"
  stroke-width="2"
  stroke-linecap="round"
  stroke-linejoin="round"
>
  <path d="M2 19l1.964-5m0 0L7.5 5h1l3.536 9m-8.072 0h8.072m0 0L14 19" />
  <path d="M22 16a3 3 0 1 1-6 0 3 3 0 0 1 6 0zm0 0v-3m0 3v3" />
</svg>
